client/public/images/logo-3.svg

<svg height="16" viewBox="0 0 68 16" width="68" xmlns="http://www.w3.org/2000/svg"><g fill-rule="evenodd" transform="translate(.244898 .959184)"><path d="m0 .28961828h4.6584334v3.3969102c.77663058-2.4755099 2.87565951-3.68652848 5.31963257-3.68652848 2.81828133 0 4.71581163 1.23729132 4.71581163 4.4768742v10.2170034h-4.6294068v-10.19073067c0-1.63261871-.63251012-2.44923716-2.32921674-2.44923716-1.92655686 0-3.07682066.73749115-3.07682066 3.84478308v8.79518475h-4.6584334z"/><path d="m19.0912939 6.52163553c0 .1552266.0832968.38700746.4171372.38700746h4.3970897c.9185511 0 1.307596-.20606105 1.307596-1.16011463v-.41242468c0-1.59825913-1.0292868-2.39769127-2.9215935-2.39769127-2.0869925 0-3.2002294.92863636-3.2002294 2.86185815zm0 2.26909223c0 1.93352434 1.084818 2.83553314 3.1721371 2.83553314 1.920399 0 2.9496858-.7222727 2.9496858-2.03640358v-.41272727h4.1468727v.28352306c0 3.19682079-2.5599875 5.23322449-7.0965585 5.23322449-4.9533814 0-7.5695534-2.4748507-7.5695534-7.34709012 0-4.84621698 2.6717031-7.34678748 7.5417878-7.34678748 4.5643366 0 7.1520897 2.08784323 7.1520897 5.90314979 0 .38700747-.0277656.77371234-.1110624 1.26329645h-9.7682616c-.3338404 0-.4171372.25780325-.4171372.38640229z"/><path d="m36.8454458 14.0632099 3.687354-14.0632099h.1942768l4.1032431 11.3557203 2.4117007-11.04069502h4.186551l-3.271465 14.37885232h-6.2656707l-2.439687-6.80806355c-.0553217-.18420186-.1389551-.28910743-.3325811-.28910743-.1662905 0-.2772593.10490557-.332581.28910743l-1.8025112 6.80806355h-4.3248553l-3.271465-14.37885232h4.3248553z"/><path d="m57.6809495 4.48532428v.97979356c0 .97949098.5397628 1.39222675 1.889746 1.52082843l3.0913954.23208823c2.6011731.23208822 3.4603581 1.44366741 3.4603581 3.299768 0 2.7069899-2.1103749 4.1760751-6.0119906 4.1760751-4.0735679 0-6.2329074-1.4948055-6.2329074-4.71771514v-.54133746h3.7296635v.6445214c0 1.2118818.8344146 1.8561006 2.5032439 1.8561006 1.5216474 0 2.281751-.5670578 2.281751-1.8043573v-1.16044114c0-1.05695458-.4660279-1.57196652-1.7172178-1.67545305l-2.9692718-.23178563c-2.7238727-.23178563-3.7299515-1.03123424-3.7299515-3.04226205 0-2.60350334 2.0856045-4.02114783 5.9872202-4.02114783 3.8281688 0 5.889579 1.46908516 5.889579 4.58820563v.56736039h-3.6317342v-.59308073c0-1.18555626-.7364854-1.80435733-2.2578448-1.80435733-1.4968771 0-2.282039.59308073-2.282039 1.72719632"/></g></svg>

<?xml version="1.0" encoding="UTF-8"?>
<svg width="68px" height="16px" viewBox="0 0 68 16" version="1.1" xmlns="http://www.w3.org/2000/svg" xmlns:xlink="http://www.w3.org/1999/xlink">
    <title>Group 23</title>
    <g id="Page-1" stroke="none" stroke-width="1" fill="none" fill-rule="evenodd">
        <g id="Group-23" transform="translate(0.244898, 0.959184)" fill="#000000">
            <path d="M-8.43769499e-14,0.289618277 L4.6584334,0.289618277 L4.6584334,3.68652848 C5.43506398,1.21101858 7.53409291,-7.99360578e-14 9.97806597,-7.99360578e-14 C12.7963473,-7.99360578e-14 14.6938776,1.23729132 14.6938776,4.4768742 L14.6938776,14.6938776 L10.0644708,14.6938776 L10.0644708,4.50314693 C10.0644708,2.87052822 9.43196068,2.05390977 7.73525406,2.05390977 C5.8086972,2.05390977 4.6584334,2.79140092 4.6584334,5.89869285 L4.6584334,14.6938776 L-8.43769499e-14,14.6938776 L-8.43769499e-14,0.289618277 Z" id="Fill-32"></path>
            <path d="M19.0912939,6.52163553 C19.0912939,6.67686213 19.1745907,6.90864299 19.5084311,6.90864299 L23.9055208,6.90864299 C24.8240719,6.90864299 25.2131168,6.70258194 25.2131168,5.74852836 L25.2131168,5.33610368 C25.2131168,3.73784455 24.18383,2.93841241 22.2915233,2.93841241 C20.2045308,2.93841241 19.0912939,3.86704877 19.0912939,5.80027056 L19.0912939,6.52163553 Z M19.0912939,8.79072776 C19.0912939,10.7242521 20.1761119,11.6262609 22.263431,11.6262609 C24.18383,11.6262609 25.2131168,10.9039882 25.2131168,9.58985732 L25.2131168,9.17713005 L29.3599895,9.17713005 L29.3599895,9.46065311 C29.3599895,12.6574739 26.800002,14.6938776 22.263431,14.6938776 C17.3100496,14.6938776 14.6938776,12.2190269 14.6938776,7.34678748 C14.6938776,2.5005705 17.3655807,-7.99360578e-14 22.2356654,-7.99360578e-14 C26.800002,-7.99360578e-14 29.3877551,2.08784323 29.3877551,5.90314979 C29.3877551,6.29015726 29.3599895,6.67686213 29.2766927,7.16644624 L19.5084311,7.16644624 C19.1745907,7.16644624 19.0912939,7.42424949 19.0912939,7.55284853 L19.0912939,8.79072776 Z" id="Fill-34"></path>
            <path d="M36.8454458,14.0632099 L40.5327998,-7.99360578e-14 L40.7270766,-7.99360578e-14 L44.8303197,11.3557203 L47.2420204,0.315025281 L51.4285714,0.315025281 L48.1571064,14.6938776 L41.8914357,14.6938776 L39.4517487,7.88581405 C39.396427,7.70161219 39.3127936,7.59670662 39.1191676,7.59670662 C38.9528771,7.59670662 38.8419083,7.70161219 38.7865866,7.88581405 L36.9840754,14.6938776 L32.6592201,14.6938776 L29.3877551,0.315025281 L33.7126104,0.315025281 L36.8454458,14.0632099 Z" id="Fill-36"></path>
            <path d="M57.6809495,4.48532428 L57.6809495,5.46511784 C57.6809495,6.44460882 58.2207123,6.85734459 59.5706955,6.98594627 L62.6620909,7.2180345 C65.263264,7.45012272 66.122449,8.66170191 66.122449,10.5178025 C66.122449,13.2247924 64.0120741,14.6938776 60.1104584,14.6938776 C56.0368905,14.6938776 53.877551,13.1990721 53.877551,9.97616246 L53.877551,9.434825 L57.6072145,9.434825 L57.6072145,10.0793464 C57.6072145,11.2912282 58.4416291,11.935447 60.1104584,11.935447 C61.6321058,11.935447 62.3922094,11.3683892 62.3922094,10.1310897 L62.3922094,8.97064856 C62.3922094,7.91369398 61.9261815,7.39868204 60.6749916,7.29519551 L57.7057198,7.06340988 C54.9818471,6.83162425 53.9757683,6.03217564 53.9757683,4.02114783 C53.9757683,1.41764449 56.0613728,-7.99360578e-14 59.9629885,-7.99360578e-14 C63.7911573,-7.99360578e-14 65.8525675,1.46908516 65.8525675,4.58820563 L65.8525675,5.15556602 L62.2208333,5.15556602 L62.2208333,4.56248529 C62.2208333,3.37692903 61.4843479,2.75812796 59.9629885,2.75812796 C58.4661114,2.75812796 57.6809495,3.35120869 57.6809495,4.48532428" id="Fill-38"></path>
        </g>
    </g>
</svg>
